packages/vapor/resources/icons/svg/variant.svg

<svg viewBox="0 0 56 56" xmlns="http://www.w3.org/2000/svg"><circle cx="28" cy="28" fill="none" r="26.035714" stroke="#94a9bf"/><path d="m36.0339074 17 4.3780953 3.1623025v3.7301516c0 .6403458-.6046526 1.1802156-1.4223386 1.3365689.0285494.1228486.0432272.2505284.0432272.3814682v11.6083459c0 .982049-.825628 1.7811629-1.8411137 1.7811629h-18.3835552c-1.0154857 0-1.8411137-.7991139-1.8411137-1.7811629v-11.6083459c0-.1309398.0146778-.2586196.0425265-.3815808-.8169853-.1562407-1.4216379-.6961105-1.4216379-1.3364563v-3.7301516l4.3780953-3.1623025zm1.4084481 8.2737776h-18.884711c-.1291376.0737039-.2114244.2014049-.2114244.3367136v11.6083459c0 .2101573.1983246.4020515.4620023.4020515h18.3835552c.2636777 0 .4620023-.1918942.4620023-.4020515v-11.6083459c0-.1353087-.0822868-.2630097-.2114244-.3367136zm-6.5433254 1.3800023c1.0628812 0 1.9278598.7422377 1.9278598 1.6541062v.8291218c0 .9118684-.8649786 1.6541062-1.9278598 1.6541062h-5.7980602c-1.0628812 0-1.9278598-.7422378-1.9278598-1.6541062v-.8291218c0-.9118685.8649786-1.6541062 1.9278598-1.6541062zm-.1435641 1.3791114-5.5127699.0013763-.0009189 1.3777351 5.5164456-.0013764zm8.2774253-6.8955571h-22.0657826v2.6221791c.1159496.0790561.3086126.1360438.5313822.1360438l.8174172-.0011828c.1567507-.0420965.3218578-.0645998.4923143-.0645998h18.3835552c.1704565 0 .3355636.0225033.4923143.0645998l.8178945.0011828c.2225141 0 .4150291-.0569663.5309049-.1360062zm-3.4449646-2.7582228h-15.1758534l-1.909076 1.3788886h18.993z" fill="#94a9bf"/></svg>

<svg viewBox="0 0 56 56" xmlns="http://www.w3.org/2000/svg">
    <g transform="translate(1.000000, 1.000000)" fill="none" stroke="#94A9BF">
        <circle id="Oval" cx="27" cy="27" r="26.0357143"></circle>
    </g>
    <path d="M36.0339074,17 L40.4120027,20.1623025 L40.4120027,23.8924541 C40.4120027,24.5327999 39.8073501,25.0726697 38.9896641,25.229023 C39.0182135,25.3518716 39.0328913,25.4795514 39.0328913,25.6104912 L39.0328913,37.2188371 C39.0328913,38.2008861 38.2072633,39 37.1917776,39 L18.8082224,39 C17.7927367,39 16.9671087,38.2008861 16.9671087,37.2188371 L16.9671087,25.6104912 C16.9671087,25.4795514 16.9817865,25.3518716 17.0096352,25.2289104 C16.1926499,25.0726697 15.5879973,24.5327999 15.5879973,23.8924541 L15.5879973,20.1623025 L19.9660926,17 L36.0339074,17 Z M37.4423555,25.2737776 L18.5576445,25.2737776 C18.4285069,25.3474815 18.3462201,25.4751825 18.3462201,25.6104912 L18.3462201,37.2188371 C18.3462201,37.4289944 18.5445447,37.6208886 18.8082224,37.6208886 L37.1917776,37.6208886 C37.4554553,37.6208886 37.6537799,37.4289944 37.6537799,37.2188371 L37.6537799,25.6104912 C37.6537799,25.4751825 37.5714931,25.3474815 37.4423555,25.2737776 Z M30.8990301,26.6537799 C31.9619113,26.6537799 32.8268899,27.3960176 32.8268899,28.3078861 L32.8268899,29.1370079 C32.8268899,30.0488763 31.9619113,30.7911141 30.8990301,30.7911141 L25.1009699,30.7911141 C24.0380887,30.7911141 23.1731101,30.0488763 23.1731101,29.1370079 L23.1731101,28.3078861 C23.1731101,27.3960176 24.0380887,26.6537799 25.1009699,26.6537799 L30.8990301,26.6537799 Z M30.755466,28.0328913 L25.2426961,28.0342676 L25.2417772,29.4120027 L30.7582228,29.4106263 L30.755466,28.0328913 Z M39.0328913,21.1373342 L16.9671087,21.1373342 L16.9671087,23.7595133 C17.0830583,23.8385694 17.2757213,23.8955571 17.4984909,23.8955571 L18.3159081,23.8943743 C18.4726588,23.8522778 18.6377659,23.8297745 18.8082224,23.8297745 L37.1917776,23.8297745 C37.3622341,23.8297745 37.5273412,23.8522778 37.6840919,23.8943743 L38.5019864,23.8955571 C38.7245005,23.8955571 38.9170155,23.8385908 39.0328913,23.7595509 L39.0328913,21.1373342 Z M35.5879267,18.3791114 L20.4120733,18.3791114 L18.5029973,19.758 L37.4959973,19.758 L35.5879267,18.3791114 Z" id="Combined-Shape" fill="#94A9BF" fill-rule="nonzero"></path>
</svg>
